X:909
T:AVANT DEUX de PLENEUF-VAL-ANDRE
Z: Yves BELOTTEAU
M:6/8
L:1/8
Q:1/4=120
K:G
|def gfe|d3/2 z/2 B G5/2 z/2 |Bdc BAG|ABc A5/2 z/2 |
def gfe|d3/2 z/2 B G5/2 z/2 |Bdc BAG|ABA G5/2 z/2 |
D3/2 z/2 E E3/2 z/2 D|E3/2 z/2 F G3/2 z/2 G|GFG ABA|GFE F3/2 z/2 E|
D3/2 z/2 E E3/2 z/2 D|E3/2 z/2 F G3/2 z/2 G|GFG ABA|GFE D5/2|
